svg/ski_water.svg

<svg xmlns="http://www.w3.org/2000/svg" viewBox="0 0 24 24"><path d="M4.2 3.5c0-.8.7-1.6 1.6-1.6s1.6.7 1.6 1.6S6.6 5 5.8 5s-1.6-.7-1.6-1.5m17.8.4-.5-.9-8 4.1.5.9zm-1.2 16.4.9.9c-.6.6-1.2 1-1.9 1.3s-1.5.5-2.3.5H2v-1.3h2.7l2.1-3.5L4.5 15l-.8-7.8c0-.9.8-1.7 1.7-1.7.3 0 .6.1.8.2l3.5 2.6 2.3-.8.8 1.6-3.5 1.5c-.1-.1-1.6-1.2-2.7-2.1L7 12l5.3 4.5 1.7 5.2h3.5c.6 0 1.2-.1 1.8-.4.6-.2 1.1-.6 1.5-1M7 21.7h5l-1.6-3.9-2.3-1.9 1.2 2.5z"/></svg>

<?xml version="1.0" encoding="UTF-8"?><!DOCTYPE svg PUBLIC "-//W3C//DTD SVG 1.1//EN" "http://www.w3.org/Graphics/SVG/1.1/DTD/svg11.dtd"><svg xmlns="http://www.w3.org/2000/svg" xmlns:xlink="http://www.w3.org/1999/xlink" version="1.1" id="mdi-ski-water" width="24" height="24" viewBox="0 0 24 24"><path d="M4.2 3.5C4.2 2.7 4.9 1.9 5.8 1.9C6.7 1.9 7.4 2.6 7.4 3.5S6.6 5 5.8 5 4.2 4.3 4.2 3.5M22 3.9L21.5 3L13.5 7.1L14 8L22 3.9M20.8 20.3L21.7 21.2C21.1 21.8 20.5 22.2 19.8 22.5S18.3 23 17.5 23H2V21.7H4.7L6.8 18.2L4.5 15L3.7 7.2C3.7 6.3 4.5 5.5 5.4 5.5C5.7 5.5 6 5.6 6.2 5.7L9.7 8.3L12 7.5L12.8 9.1L9.3 10.6C9.2 10.5 7.7 9.4 6.6 8.5L7 12L12.3 16.5L14 21.7H17.5C18.1 21.7 18.7 21.6 19.3 21.3C19.9 21.1 20.4 20.7 20.8 20.3M7 21.7H12L10.4 17.8L8.1 15.9L9.3 18.4L7 21.7Z" /></svg>
